packages/foundations/assets/icons/functional/images/maps/parking_32.svg

<svg width="32" height="32" viewBox="0 0 32 32" fill="none" xmlns="http://www.w3.org/2000/svg">
<g clip-path="url(#clip0_186_94)">
<path fill-rule="evenodd" clip-rule="evenodd" d="M27 2C28.6569 2 30 3.34315 30 5V27C30 28.6569 28.6569 30 27 30H5C3.34315 30 2 28.6569 2 27V5C2 3.34315 3.34315 2 5 2H27ZM27 4H5C4.48716 4 4.06449 4.38604 4.00673 4.88338L4 5V27C4 27.5128 4.38604 27.9355 4.88338 27.9933L5 28H27C27.5128 28 27.9355 27.614 27.9933 27.1166L28 27V5C28 4.48716 27.614 4.06449 27.1166 4.00673L27 4ZM16.8858 8.46C18.4991 8.46 19.7258 8.82 20.5658 9.54C21.4058 10.26 21.8258 11.34 21.8258 12.78C21.8258 14.26 21.3891 15.3767 20.5158 16.13C19.6971 16.8362 18.5062 17.2114 16.9433 17.2556C15.9014 17.285 15.0089 17.2385 14.2657 17.116L14.2658 21.64C14.2658 22.3911 13.6569 23 12.9058 23C12.1989 23 11.5458 22.4759 11.5458 21.64C11.5438 17.7468 11.5438 13.8534 11.5458 9.96C11.5458 9.1803 12.149 8.46 13.0458 8.46H16.8858ZM14.2657 10.46V15.219C14.974 15.2997 15.6874 15.34 16.4058 15.34C17.3525 15.34 18.0358 15.1467 18.4558 14.76C18.8758 14.3733 19.0858 13.74 19.0858 12.86C19.0858 12.0721 18.9343 11.4909 18.6313 11.1162C18.3282 10.7415 17.5684 10.4615 16.7058 10.46C15.8924 10.4586 15.0791 10.4586 14.2657 10.46Z" fill="#1A1C1F"/>
</g>
<defs>
<clipPath id="clip0_186_94">
<rect width="32" height="32" fill="white"/>
</clipPath>
</defs>
</svg>

<svg xmlns="http://www.w3.org/2000/svg" width="32" height="32" fill="none"><g clip-path="url(#a)"><path fill="#1A1C1F" fill-rule="evenodd" d="M27 2a3 3 0 0 1 3 3v22a3 3 0 0 1-3 3H5a3 3 0 0 1-3-3V5a3 3 0 0 1 3-3zm0 2H5a1 1 0 0 0-.993.883L4 5v22a1 1 0 0 0 .883.993L5 28h22a1 1 0 0 0 .993-.883L28 27V5a1 1 0 0 0-.883-.993zM16.886 8.46q2.42 0 3.68 1.08t1.26 3.24q0 2.22-1.31 3.35-1.228 1.059-3.573 1.126-1.563.043-2.677-.14v4.524a1.36 1.36 0 0 1-1.36 1.36c-.707 0-1.36-.524-1.36-1.36q-.003-5.84 0-11.68c0-.78.603-1.5 1.5-1.5zm-2.62 2v4.759q1.062.12 2.14.121 1.42 0 2.05-.58t.63-1.9q0-1.183-.455-1.744c-.303-.374-1.063-.655-1.925-.656a709 709 0 0 0-2.44 0" clip-rule="evenodd"/></g><defs><clipPath id="a"><path fill="#fff" d="M0 0h32v32H0z"/></clipPath></defs></svg>
